X:486
T: "Schwere Wahl"
N: Z1166
O: Europa, Mitteleuropa, Deutschland, Elsass
R: Liebes - Lied
M: 2/4
L: 1/16
K: G
D2 | G2F2G2A2 | _B4A2
G2 | F2G2A2F2 | D4z2
D2 | G2F2G2A2 | _B4A2
G2 | F2G2A2F2 | D4z2
_B2 | _B2c2d2d2d2d2 | d2c2c2c2c2c2
_B2B2B2AG | A2D2D4
_B4A2G2 | FGAFG4
G2G2_B2B2 | AAAAG2

